svgs/sharp-light/truck-flatbed.svg

<svg xmlns="http://www.w3.org/2000/svg" viewBox="0 0 640 512"><!--! Font Awesome Pro 6.6.0 by @fontawesome - https://fontawesome.com License - https://fontawesome.com/license (Commercial License) Copyright 2024 Fonticons, Inc. --><path d="M400 96l-16 0 0 16 0 272-133.5 0c-13.2-37.3-48.7-64-90.5-64s-77.4 26.7-90.5 64L16 384 0 384l0 32 16 0 48 0c0 53 43 96 96 96s96-43 96-96l128 0c0 53 43 96 96 96s96-43 96-96l48 0 16 0 0-32-16 0-16 0 0-160 0-5.9-3.9-4.5-96-112L503.4 96 496 96l-96 0zM224 416A64 64 0 1 1 96 416a64 64 0 1 1 128 0zm192-71.6l0-88.4 160 0 0 128-5.5 0c-13.2-37.3-48.7-64-90.5-64c-24.6 0-47 9.2-64 24.4zM570.9 224L416 224l0-96 72.6 0 82.3 96zM480 352a64 64 0 1 1 0 128 64 64 0 1 1 0-128z"/></svg>

<svg xmlns="http://www.w3.org/2000/svg" viewBox="0 0 640 512"><!--! Font Awesome Pro 6.4.2 by @fontawesome - https://fontawesome.com License - https://fontawesome.com/license (Commercial License) Copyright 2023 Fonticons, Inc. --><path d="M400 96H384v16V384H250.5c-13.2-37.3-48.7-64-90.5-64s-77.4 26.7-90.5 64H16 0v32H16 64c0 53 43 96 96 96s96-43 96-96H384c0 53 43 96 96 96s96-43 96-96h48 16V384H624 608V224v-5.9l-3.9-4.5-96-112L503.4 96H496 400zM224 416A64 64 0 1 1 96 416a64 64 0 1 1 128 0zm192-71.6V256H576V384h-5.5c-13.2-37.3-48.7-64-90.5-64c-24.6 0-47 9.2-64 24.4zM570.9 224H416V128h72.6l82.3 96zM480 352a64 64 0 1 1 0 128 64 64 0 1 1 0-128z"/></svg>
